packages/kaspersky-hexa-ui-icons/src/iconsSVGs/28x20/FlagCoc.svg

<svg width="28" height="20" viewBox="0 0 28 20" fill="none" xmlns="http://www.w3.org/2000/svg">
<g clip-path="url(#clip0_5138_2214)">
<rect width="28" height="20" rx="2" fill="white"/>
<mask id="mask0_5138_2214" style="mask-type:luminance" maskUnits="userSpaceOnUse" x="0" y="0" width="28" height="20">
<rect width="28" height="20" rx="2" fill="white"/>
</mask>
<g mask="url(#mask0_5138_2214)">
<rect width="28" height="20" fill="#19BFBF"/>
<path fill-rule="evenodd" clip-rule="evenodd" d="M13.4444 3.33335C13.3723 3.33335 13.3021 3.35675 13.2444 3.40002L10.7205 5.29297C10.685 5.31962 10.6445 5.3389 10.6014 5.34968L8.0355 5.99115C8.0119 5.99704 7.98902 6.00551 7.96727 6.01638L5.43271 7.28366C5.3682 7.31592 5.3159 7.36823 5.28364 7.43273L4.08651 9.827C4.03301 9.93399 4.04095 10.0614 4.1073 10.161L5.27735 11.916C5.31385 11.9708 5.33333 12.0351 5.33333 12.1009V13.8619C5.33333 13.9504 5.36845 14.0351 5.43096 14.0977L6.49678 15.1635C6.59823 15.2649 6.75322 15.2901 6.88155 15.2259L10.5963 13.3685C10.6426 13.3454 10.6936 13.3334 10.7454 13.3334H13.2126C13.2906 13.3334 13.3661 13.3607 13.426 13.4106L17.2406 16.5894C17.3005 16.6393 17.376 16.6667 17.454 16.6667H19.8216C19.9331 16.6667 20.0371 16.611 20.099 16.5183L22.6107 12.7507C22.6472 12.6959 22.6667 12.6316 22.6667 12.5658V10.1009C22.6667 10.0351 22.6472 9.9708 22.6107 9.91605L20 6.00002L18.0971 2.82852C18.0369 2.72812 17.9284 2.66669 17.8113 2.66669H17.3927C17.1248 2.66669 16.9906 2.99063 17.1801 3.18008C17.2716 3.27161 17.2943 3.41145 17.2364 3.52723L16.7588 4.48242C16.7023 4.59535 16.5869 4.66669 16.4607 4.66669H14.8727C14.7464 4.66669 14.631 4.59535 14.5745 4.48242L14.0921 3.51762C14.0357 3.40469 13.9202 3.33335 13.794 3.33335H13.4444ZM19.3333 17.3334H18L18.431 17.7643C18.5611 17.8945 18.7722 17.8945 18.9024 17.7643L19.3333 17.3334Z" fill="white"/>
</g>
</g>
<defs>
<clipPath id="clip0_5138_2214">
<rect width="28" height="20" fill="white"/>
</clipPath>
</defs>
</svg>

<svg xmlns="http://www.w3.org/2000/svg" width="28" height="20" fill="none" viewBox="0 0 28 20"><g clip-path="url(#a)"><rect width="28" height="20" fill="#fff" rx="2"/><mask id="b" width="28" height="20" x="0" y="0" maskUnits="userSpaceOnUse" style="mask-type:luminance"><rect width="28" height="20" fill="#fff" rx="2"/></mask><g mask="url(#b)"><path fill="#19bfbf" d="M0 0h28v20H0z"/><path fill="#fff" fill-rule="evenodd" d="M13.4444 3.3334a.333.333 0 0 0-.2.0666l-2.5239 1.893a.33.33 0 0 1-.1191.0567l-2.5659.6414a.33.33 0 0 0-.0682.0253L5.4327 7.2837a.333.333 0 0 0-.149.149L4.0864 9.827a.333.333 0 0 0 .0208.334l1.17 1.755a.334.334 0 0 1 .056.1849v1.761c0 .0885.0351.1732.0977.2358l1.0658 1.0658a.333.333 0 0 0 .3847.0624l3.7148-1.8574a.334.334 0 0 1 .1491-.0351h2.4672c.078 0 .1535.0273.2134.0772l3.8146 3.1788a.333.333 0 0 0 .2134.0773h2.3676a.334.334 0 0 0 .2774-.1484l2.5117-3.7676a.334.334 0 0 0 .056-.1849v-2.4649a.333.333 0 0 0-.056-.1848L20 6l-1.9029-3.1716a.333.333 0 0 0-.2858-.1618h-.4186c-.2679 0-.4021.324-.2126.5134a.301.301 0 0 1 .0563.3471l-.4776.9552a.333.333 0 0 1-.2981.1843h-1.588a.333.333 0 0 1-.2982-.1843l-.4824-.9648a.333.333 0 0 0-.2981-.1843zm5.8889 14H18l.431.4309a.3333.3333 0 0 0 .4714 0z" clip-rule="evenodd"/></g></g><defs><clipPath id="a"><path fill="#fff" d="M0 0h28v20H0z"/></clipPath></defs></svg>
